X: 1
T: Four Poster Bed, The
M: 4/4
L: 1/8
R: reel
K: Dmaj
|: f2f2 e2fg | agfe dcde | f2f2 e2d2 | a4 A4 :|
|: e2e2 e2ef | edcB A2a2 | A2a2 A2a2 | A2a2 A2cd |
e2e2 e2ef | edcB A2fg | a2g2 f2e2 |1 d4 d2cd :|2 dafa d2d2 ||
